packages/core/src/svgs/tokens/branded/ICP.svg

<svg width="24" height="24" viewBox="0 0 24 24" fill="none" xmlns="http://www.w3.org/2000/svg">
<path fill-rule="evenodd" clip-rule="evenodd" d="M12 13.5399L12.0251 13.5099C13.485 14.9299 15.59 16.5799 17.415 16.5799C18.0117 16.5858 18.6035 16.474 19.157 16.2511C19.7104 16.028 20.2144 15.6982 20.6403 15.2802C21.0661 14.8623 21.4053 14.3645 21.6387 13.8154C21.8719 13.2662 21.9947 12.6765 22 12.0798C22 9.59492 19.9499 7.57993 17.415 7.57993C15.475 7.57993 13.5651 9.01992 12 10.6199V13.5399ZM17.35 14.7599C18.91 14.7599 20.175 13.5599 20.175 12.0798C20.175 10.5999 18.91 9.39991 17.345 9.39991C15.78 9.39991 14.255 10.8499 13.1851 12.0798C13.895 12.8799 15.785 14.7599 17.345 14.7599H17.35Z" fill="url(#paint0_linear_364_11583)"/>
<path fill-rule="evenodd" clip-rule="evenodd" d="M12.0599 13.5999L11.96 13.4999C10.5449 14.9049 8.45994 16.5799 6.58496 16.5799C5.98834 16.5858 5.3964 16.474 4.84299 16.2511C4.28957 16.028 3.78554 15.6982 3.35973 15.2802C2.9339 14.8623 2.59463 14.3645 2.36133 13.8154C2.12801 13.2662 2.00523 12.6765 2 12.0798C2 9.59492 4.04998 7.57993 6.58496 7.57993C8.55494 7.57993 10.385 9.13491 11.925 10.7949L12.0599 10.6549V13.5999ZM6.64995 14.7599C5.08498 14.7599 3.81998 13.5599 3.81998 12.0798C3.81998 10.5999 5.08498 9.39991 6.64995 9.39991C8.21494 9.39991 9.73993 10.8499 10.8099 12.0798C10.1 12.8799 8.20995 14.7599 6.64995 14.7599Z" fill="url(#paint1_linear_364_11583)"/>
<path d="M10.6205 11.9149L10.7404 12.0199L11.9654 13.5799C13.4054 14.9248 15.5054 16.5798 17.4154 16.5798C18.4692 16.5872 19.493 16.2297 20.3133 15.568C21.1335 14.9064 21.6995 13.9814 21.9153 12.9499C21.5253 13.6548 20.1654 14.7599 17.7355 14.7349C17.6104 14.7498 17.4804 14.7599 17.3454 14.7599C15.7804 14.7599 13.8954 12.8799 13.1855 12.0798L13.2004 12.0599L11.7254 10.2849L10.2504 8.8849C9.07048 7.98492 7.8505 7.41992 6.51051 7.41992C4.24553 7.41992 2.42555 9.21991 2.06055 11.3699C3.07053 9.5399 5.24552 8.94991 7.1555 9.4549C8.40549 9.6699 9.49048 10.6649 10.6205 11.9149Z" fill="#46ABE3"/>
<defs>
<linearGradient id="paint0_linear_364_11583" x1="23.02" y1="11.5725" x2="1.05015" y2="11.5725" gradientUnits="userSpaceOnUse">
<stop stop-color="#F2A528"/>
<stop offset="1" stop-color="#EF5E12"/>
</linearGradient>
<linearGradient id="paint1_linear_364_11583" x1="3.87871" y1="11.6589" x2="22.4472" y2="11.6589" gradientUnits="userSpaceOnUse">
<stop stop-color="#5F2685"/>
<stop offset="1" stop-color="#DA1980"/>
</linearGradient>
</defs>
</svg>

<svg xmlns="http://www.w3.org/2000/svg" width="24" height="24" fill="none" viewBox="0 0 24 24">
    <path fill="url(#ICP__a)" fill-rule="evenodd" d="m12 13.54.025-.03c1.46 1.42 3.565 3.07 5.39 3.07A4.543 4.543 0 0 0 22 12.08c0-2.485-2.05-4.5-4.585-4.5-1.94 0-3.85 1.44-5.415 3.04zm5.35 1.22c1.56 0 2.825-1.2 2.825-2.68S18.91 9.4 17.345 9.4s-3.09 1.45-4.16 2.68c.71.8 2.6 2.68 4.16 2.68z" clip-rule="evenodd"/>
    <path fill="url(#ICP__b)" fill-rule="evenodd" d="m12.06 13.6-.1-.1c-1.415 1.405-3.5 3.08-5.375 3.08A4.54 4.54 0 0 1 2 12.08c0-2.485 2.05-4.5 4.585-4.5 1.97 0 3.8 1.555 5.34 3.215l.135-.14zm-5.41 1.16c-1.565 0-2.83-1.2-2.83-2.68S5.085 9.4 6.65 9.4s3.09 1.45 4.16 2.68c-.71.8-2.6 2.68-4.16 2.68" clip-rule="evenodd"/>
    <path fill="#46ABE3" d="m10.62 11.915.12.105 1.225 1.56c1.44 1.345 3.54 3 5.45 3a4.564 4.564 0 0 0 4.5-3.63c-.39.705-1.75 1.81-4.18 1.785a3 3 0 0 1-.39.025c-1.565 0-3.45-1.88-4.16-2.68l.015-.02-1.475-1.775-1.475-1.4c-1.18-.9-2.4-1.465-3.74-1.465-2.264 0-4.084 1.8-4.45 3.95 1.01-1.83 3.186-2.42 5.095-1.915 1.25.215 2.335 1.21 3.465 2.46"/>
    <defs>
        <linearGradient id="ICP__a" x1="23.02" x2="1.05" y1="11.572" y2="11.572" gradientUnits="userSpaceOnUse">
            <stop stop-color="#F2A528"/>
            <stop offset="1" stop-color="#EF5E12"/>
        </linearGradient>
        <linearGradient id="ICP__b" x1="3.879" x2="22.447" y1="11.659" y2="11.659" gradientUnits="userSpaceOnUse">
            <stop stop-color="#5F2685"/>
            <stop offset="1" stop-color="#DA1980"/>
        </linearGradient>
    </defs>
</svg>
